app/img/company/bg.svg

<svg width="290" height="323" viewBox="0 0 290 323" fill="none" xmlns="http://www.w3.org/2000/svg">
    <path d="M142.87 22.1444L8.72523 68.6375C4.69955 70.0327 2 73.8255 2 78.0861V263.779C2 268.013 4.666 271.788 8.65589 273.204L142.8 320.804C144.981 321.577 147.361 321.571 149.538 320.786L281.393 273.225C285.358 271.795 288 268.033 288 263.818V78.0477C288 73.8058 285.324 70.0255 281.323 68.616L149.468 22.1612C147.334 21.4094 145.008 21.4034 142.87 22.1444Z"
          fill="url(#paint0_linear)" stroke="url(#paint1_linear)" stroke-width="3" stroke-linecap="round"/>
    <path d="M61.8902 2.14437L30.7252 12.9458C26.6996 14.341 24 18.1338 24 22.3944V65.3209C24 69.5545 26.666 73.3294 30.6559 74.7452L61.8203 85.8036C64.0005 86.5772 66.3814 86.571 68.5575 85.7861L99.1074 74.7666C103.072 73.3365 105.714 69.5744 105.714 65.3598V22.356C105.714 18.1141 103.038 14.3338 99.0372 12.9242L68.488 2.16121C66.354 1.40936 64.028 1.40343 61.8902 2.14437Z"
          fill="url(#paint2_linear)" stroke="url(#paint3_linear)" stroke-width="3" stroke-linecap="round"/>
    <path d="M85.1629 39.9563C84.9265 39.6744 84.6762 39.4066 84.419 39.153L76.5135 31.1411C75.8096 30.4276 74.8958 29.9654 73.91 29.8243C72.9242 29.6832 71.9199 29.8709 71.0485 30.359L65.069 24.292C64.1364 23.3535 62.8755 22.8268 61.5613 22.8268C60.247 22.8268 58.9861 23.3535 58.0535 24.292C57.4435 24.9051 57.0045 25.6709 56.7811 26.5116C55.8032 25.6767 54.5449 25.257 53.2689 25.3402C51.9929 25.4235 50.7979 26.0031 49.9337 26.9581C49.0694 27.9131 48.6027 29.1696 48.631 30.4652C48.6593 31.7607 49.1804 32.9951 50.0855 33.9104L50.3706 34.1993C49.5386 34.4382 48.7827 34.8933 48.1776 35.5193C47.5726 36.1454 47.1394 36.9208 46.9209 37.7687C46.7024 38.6166 46.7063 39.5076 46.9321 40.3535C47.1579 41.1995 47.5977 41.971 48.2082 42.5916L49.0704 43.4654C48.2507 43.6925 47.5048 44.1349 46.908 44.7479C45.9824 45.6918 45.4629 46.9685 45.4629 48.2993C45.4629 49.63 45.9824 50.9068 46.908 51.8507L59.4233 64.5343C62.7602 67.9338 67.2905 69.8544 72.0219 69.8756H72.1193C74.4319 69.8834 76.7232 69.4266 78.8606 68.5316C80.998 67.6366 82.9392 66.3211 84.5719 64.6612C87.7637 61.398 89.603 57.0212 89.7129 52.4278C89.8227 47.8344 88.1949 43.3724 85.1629 39.9563ZM82.7503 62.8221C81.3453 64.2562 79.6706 65.3899 77.8254 66.1561C75.9802 66.9223 74.002 67.3053 72.008 67.2825C69.9961 67.2776 68.0049 66.8705 66.1485 66.0846C64.292 65.2986 62.6068 64.1493 61.1893 62.7023L48.674 50.0186C48.45 49.7913 48.273 49.5208 48.1536 49.2231C48.0342 48.9254 47.9748 48.6065 47.9787 48.2852C47.975 47.9628 48.0345 47.643 48.1539 47.3442C48.2733 47.0454 48.4501 46.7736 48.674 46.5447C49.1382 46.1028 49.7511 45.8568 50.3879 45.8568C51.0248 45.8568 51.6377 46.1028 52.1018 46.5447L60.8556 55.4021C61.0966 55.621 61.4112 55.7379 61.7346 55.7289C62.0581 55.7199 62.3659 55.5857 62.5948 55.3538C62.8236 55.1219 62.956 54.8099 62.9649 54.4821C62.9738 54.1543 62.8584 53.8354 62.6425 53.5912L53.9235 44.7479L50.002 40.7736C49.5482 40.3126 49.2933 39.688 49.2933 39.0367C49.2933 38.3854 49.5482 37.7608 50.002 37.2997C50.4646 36.8546 51.0781 36.6065 51.7159 36.6065C52.3538 36.6065 52.9673 36.8546 53.4298 37.2997L64.1721 48.1865C64.41 48.4267 64.7322 48.5612 65.068 48.5606C65.4038 48.5599 65.7255 48.4241 65.9625 48.183C66.1994 47.9419 66.3322 47.6153 66.3315 47.275C66.3309 46.9348 66.1969 46.6087 65.959 46.3685L51.8724 32.0924C51.4219 31.6296 51.1693 31.0056 51.1693 30.3554C51.1693 29.7053 51.4219 29.0813 51.8724 28.6185C52.3369 28.1745 52.9513 27.9272 53.5898 27.9272C54.2283 27.9272 54.8426 28.1745 55.3071 28.6185L58.0883 31.4371L61.2866 34.6784L67.5443 41.0203C67.7821 41.2614 68.1048 41.3968 68.4412 41.3968C68.7776 41.3968 69.1002 41.2614 69.3381 41.0203C69.576 40.7792 69.7096 40.4522 69.7096 40.1113C69.7096 39.7703 69.576 39.4434 69.3381 39.2023L63.0805 32.8605L59.8474 29.5839C59.3935 29.1228 59.1386 28.4982 59.1386 27.8469C59.1386 27.1956 59.3935 26.571 59.8474 26.1099C60.3099 25.6648 60.9234 25.4167 61.5613 25.4167C62.1991 25.4167 62.8126 25.6648 63.2752 26.1099L69.2547 32.177C68.7742 33.0603 68.5897 34.0779 68.7289 35.0767C68.868 36.0755 69.3234 37.0015 70.0264 37.7155L73.3082 41.0414C72.3068 42.3389 71.7756 43.9457 71.8034 45.5927C71.8313 47.2397 72.4165 48.8271 73.4612 50.0891C73.4854 50.1207 73.5134 50.1491 73.5446 50.1736C73.7654 50.4034 74.0639 50.5398 74.3799 50.5555C74.696 50.5712 75.0062 50.465 75.2481 50.2582C75.3763 50.1502 75.4821 50.0176 75.5596 49.8679C75.637 49.7183 75.6846 49.5547 75.6994 49.3864C75.7143 49.2181 75.6962 49.0485 75.6462 48.8874C75.5962 48.7262 75.5152 48.5766 75.408 48.4473C74.6703 47.556 74.2907 46.4158 74.3448 45.2537C74.3989 44.0917 74.8827 42.9928 75.7 42.1759C75.7428 42.1276 75.7893 42.0829 75.8391 42.042C75.9837 41.9308 76.1032 41.7895 76.1895 41.6277C76.2758 41.4658 76.327 41.2871 76.3395 41.1035C76.352 40.92 76.3256 40.7358 76.2621 40.5635C76.1985 40.3911 76.0994 40.2345 75.9712 40.1042L71.7994 35.8764C71.5212 35.469 71.3931 34.9755 71.4373 34.4821C71.4815 33.9887 71.6953 33.5267 72.0414 33.1768C72.3875 32.8268 72.8439 32.6112 73.3309 32.5676C73.8178 32.524 74.3044 32.655 74.7058 32.938L82.5904 40.9639C82.8059 41.1823 83.0075 41.4008 83.2161 41.6686C85.8141 44.5901 87.2128 48.4071 87.1262 52.339C87.0396 56.271 85.4743 60.0209 82.7503 62.8221Z"
          fill="#80FF9F"/>
    <path d="M84.0645 51.2025C84.0664 51.9524 83.9218 52.6953 83.639 53.3883C83.3562 54.0813 82.9407 54.7107 82.4166 55.2401C82.1768 55.4778 81.8552 55.6117 81.5197 55.6136C81.2688 55.6144 81.0233 55.5397 80.8144 55.3988C80.6055 55.258 80.4427 55.0574 80.3466 54.8225C80.2504 54.5876 80.2254 54.3291 80.2746 54.0797C80.3237 53.8304 80.4449 53.6015 80.6228 53.4221C81.2011 52.8321 81.5256 52.0341 81.5256 51.2025C81.5256 50.3708 81.2011 49.5729 80.6228 48.9828C80.3849 48.7418 80.2513 48.4148 80.2513 48.0738C80.2513 47.7329 80.3849 47.4059 80.6228 47.1648C80.8607 46.9238 81.1833 46.7883 81.5197 46.7883C81.8561 46.7883 82.1788 46.9238 82.4166 47.1648C82.9407 47.6943 83.3562 48.3236 83.639 49.0166C83.9218 49.7096 84.0664 50.4525 84.0645 51.2025Z"
          fill="#80FF9F"/>
    <path d="M78.8979 30.3871C78.7317 30.3871 78.5672 30.354 78.4137 30.2895C78.2601 30.2251 78.1206 30.1306 78.0031 30.0115C77.8856 29.8924 77.7924 29.751 77.7288 29.5954C77.6652 29.4398 77.6325 29.2731 77.6325 29.1047C77.6307 28.2736 77.3041 27.4771 76.7242 26.8894C76.1444 26.3018 75.3585 25.9708 74.5384 25.969C74.2019 25.969 73.8792 25.8335 73.6412 25.5923C73.4032 25.3511 73.2695 25.024 73.2695 24.683C73.2695 24.3419 73.4032 24.0148 73.6412 23.7736C73.8792 23.5325 74.2019 23.397 74.5384 23.397C76.0315 23.3988 77.463 24.0008 78.5187 25.0708C79.5745 26.1408 80.1685 27.5915 80.1703 29.1047C80.1703 29.2737 80.1373 29.441 80.0733 29.5971C80.0093 29.7531 79.9155 29.8948 79.7972 30.014C79.679 30.1332 79.5387 30.2275 79.3843 30.2915C79.23 30.3556 79.0647 30.3881 78.8979 30.3871Z"
          fill="#80FF9F"/>
    <path d="M83.2371 30.1193C82.9015 30.1193 82.5796 29.9842 82.3423 29.7437C82.105 29.5032 81.9717 29.177 81.9717 28.8369C81.9698 26.9094 81.213 25.0616 79.8676 23.6994C78.5221 22.3371 76.6981 21.572 74.7963 21.572C74.4597 21.572 74.137 21.4365 73.899 21.1953C73.661 20.9541 73.5273 20.627 73.5273 20.286C73.5273 19.9449 73.661 19.6178 73.899 19.3767C74.137 19.1355 74.4597 19 74.7963 19C77.3779 19 79.8538 20.0394 81.6793 21.8894C83.5048 23.7395 84.5303 26.2487 84.5303 28.865C84.5267 29.0335 84.4904 29.1995 84.4234 29.3537C84.3565 29.5079 84.2602 29.6472 84.1401 29.7637C84.02 29.8802 83.8785 29.9715 83.7235 30.0326C83.5686 30.0936 83.4033 30.1231 83.2371 30.1193Z"
          fill="#80FF9F"/>
    <path d="M47.9991 61.7018C46.506 61.6999 45.0745 61.098 44.0188 60.028C42.963 58.958 42.369 57.5073 42.3672 55.9941C42.3672 55.6531 42.5009 55.326 42.7388 55.0848C42.9768 54.8436 43.2996 54.7081 43.6361 54.7081C43.9726 54.7081 44.2954 54.8436 44.5333 55.0848C44.7713 55.326 44.905 55.6531 44.905 55.9941C44.9068 56.8252 45.2334 57.6217 45.8133 58.2093C46.3931 58.797 47.179 59.1279 47.9991 59.1298C48.3356 59.1298 48.6583 59.2653 48.8963 59.5065C49.1343 59.7476 49.268 60.0747 49.268 60.4158C49.268 60.7569 49.1343 61.084 48.8963 61.3251C48.6583 61.5663 48.3356 61.7018 47.9991 61.7018Z"
          fill="#80FF9F"/>
    <path d="M47.7341 66.0987C45.1524 66.0987 42.6765 65.0594 40.851 63.2093C39.0256 61.3593 38 58.8501 38 56.2337C38 55.8927 38.1337 55.5656 38.3717 55.3244C38.6096 55.0832 38.9324 54.9478 39.2689 54.9478C39.6054 54.9478 39.9282 55.0832 40.1662 55.3244C40.4041 55.5656 40.5378 55.8927 40.5378 56.2337C40.5351 57.1922 40.7193 58.1419 41.08 59.0279C41.4407 59.914 41.9706 60.7191 42.6394 61.3969C43.3082 62.0747 44.1026 62.6118 44.9769 62.9773C45.8513 63.3428 46.7883 63.5295 47.7341 63.5268C48.0706 63.5268 48.3934 63.6622 48.6313 63.9034C48.8693 64.1446 49.003 64.4717 49.003 64.8127C49.003 65.1538 48.8693 65.4809 48.6313 65.722C48.3934 65.9632 48.0706 66.0987 47.7341 66.0987Z"
          fill="#80FF9F"/>
    <defs>
        <linearGradient id="paint0_linear" x1="28.959" y1="5.5336" x2="148.071" y2="320.84"
                        gradientUnits="userSpaceOnUse">
            <stop stop-color="#0A1193"/>
            <stop offset="1" stop-color="#5E2CE6"/>
        </linearGradient>
        <linearGradient id="paint1_linear" x1="90" y1="102.521" x2="163.001" y2="379.972"
                        gradientUnits="userSpaceOnUse">
            <stop stop-color="#62DAE0"/>
            <stop offset="1" stop-color="#76F3B6"/>
        </linearGradient>
        <linearGradient id="paint2_linear" x1="31.7026" y1="-3.41897" x2="65.7346" y2="86.6685"
                        gradientUnits="userSpaceOnUse">
            <stop stop-color="#0A1193"/>
            <stop offset="1" stop-color="#5E2CE6"/>
        </linearGradient>
        <linearGradient id="paint3_linear" x1="49.1429" y1="24.2917" x2="70.0002" y2="103.563"
                        gradientUnits="userSpaceOnUse">
            <stop stop-color="#62DAE0"/>
            <stop offset="1" stop-color="#76F3B6"/>
        </linearGradient>
    </defs>
</svg>

<svg width="290" height="323" fill="none" xmlns="http://www.w3.org/2000/svg"><path d="M142.87 22.144 8.725 68.637A10 10 0 0 0 2 78.088v185.692a10 10 0 0 0 6.656 9.425l134.144 47.6c2.181.773 4.561.767 6.738-.018l131.855-47.561a10 10 0 0 0 6.607-9.407V78.048a10 10 0 0 0-6.677-9.432L149.468 22.161a10 10 0 0 0-6.598-.017Z" fill="url(#a)" stroke="url(#b)" stroke-width="3" stroke-linecap="round"/><path d="M61.89 2.144 30.725 12.946A10 10 0 0 0 24 22.394v42.927a10 10 0 0 0 6.656 9.424L61.82 85.804a10 10 0 0 0 6.738-.018l30.55-11.02a10 10 0 0 0 6.606-9.406V22.356a10 10 0 0 0-6.677-9.432L68.488 2.161a10 10 0 0 0-6.598-.017Z" fill="url(#c)" stroke="url(#d)" stroke-width="3" stroke-linecap="round"/><path d="M85.163 39.956c-.236-.282-.487-.55-.744-.803l-7.906-8.012a4.567 4.567 0 0 0-2.603-1.317 4.537 4.537 0 0 0-2.861.535l-5.98-6.067a4.945 4.945 0 0 0-3.508-1.465 4.945 4.945 0 0 0-3.508 1.465 4.948 4.948 0 0 0-1.272 2.22 4.915 4.915 0 0 0-3.512-1.172 4.932 4.932 0 0 0-3.335 1.618 5.063 5.063 0 0 0-1.303 3.507 5.057 5.057 0 0 0 1.455 3.445l.285.29a4.952 4.952 0 0 0-2.193 1.32 5.05 5.05 0 0 0-1.257 2.249 5.096 5.096 0 0 0 .011 2.584 5.046 5.046 0 0 0 1.276 2.239l.862.873c-.82.227-1.565.67-2.162 1.283a5.073 5.073 0 0 0-1.445 3.551c0 1.331.52 2.608 1.445 3.552l12.515 12.683a17.764 17.764 0 0 0 12.599 5.342h.097a17.3 17.3 0 0 0 6.742-1.344 17.487 17.487 0 0 0 5.71-3.87 18.116 18.116 0 0 0 5.142-12.234 18.14 18.14 0 0 0-4.55-12.472ZM82.75 62.822a14.89 14.89 0 0 1-4.925 3.334 14.727 14.727 0 0 1-5.817 1.126 15.122 15.122 0 0 1-5.86-1.197 15.287 15.287 0 0 1-4.959-3.383L48.674 50.02a2.413 2.413 0 0 1-.695-1.734 2.46 2.46 0 0 1 .695-1.74 2.485 2.485 0 0 1 1.714-.688c.637 0 1.25.246 1.714.688l8.754 8.857a1.255 1.255 0 0 0 1.739-.048 1.291 1.291 0 0 0 .047-1.763l-8.719-8.843-3.921-3.974a2.476 2.476 0 0 1-.709-1.737c0-.652.255-1.276.709-1.737a2.472 2.472 0 0 1 1.714-.694c.638 0 1.251.249 1.714.694l10.742 10.887a1.258 1.258 0 0 0 1.79-.004 1.292 1.292 0 0 0-.003-1.815L51.872 32.093a2.49 2.49 0 0 1-.703-1.737c0-.65.253-1.274.703-1.736a2.485 2.485 0 0 1 1.718-.692c.638 0 1.253.247 1.717.692l2.781 2.818 3.199 3.241 6.257 6.342a1.26 1.26 0 0 0 1.794 0 1.294 1.294 0 0 0 0-1.818l-6.257-6.341-3.234-3.277a2.476 2.476 0 0 1-.708-1.737c0-.651.255-1.276.708-1.737a2.471 2.471 0 0 1 1.714-.693c.638 0 1.252.248 1.714.693l5.98 6.067a4.71 4.71 0 0 0 .771 5.538l3.282 3.326a7.251 7.251 0 0 0-1.505 4.552 7.245 7.245 0 0 0 1.658 4.496c.024.032.052.06.084.085a1.244 1.244 0 0 0 1.703.084 1.279 1.279 0 0 0 .451-.872 1.298 1.298 0 0 0-.291-.939 4.67 4.67 0 0 1-1.063-3.193 4.658 4.658 0 0 1 1.355-3.078c.043-.048.09-.093.14-.134a1.286 1.286 0 0 0 .5-.939 1.306 1.306 0 0 0-.369-.999L71.8 35.876a2.136 2.136 0 0 1 .242-2.7 2.065 2.065 0 0 1 2.664-.239l7.885 8.027a7.8 7.8 0 0 1 .626.705 15.546 15.546 0 0 1 3.91 10.67 15.528 15.528 0 0 1-4.376 10.483Z" fill="#80FF9F"/><path d="M84.064 51.203a5.748 5.748 0 0 1-.425 2.185 5.684 5.684 0 0 1-1.222 1.852c-.24.238-.562.372-.897.374-.251 0-.497-.074-.706-.215a1.278 1.278 0 0 1-.467-.577 1.298 1.298 0 0 1 .276-1.4c.578-.59.903-1.388.903-2.22 0-.831-.325-1.63-.903-2.22a1.294 1.294 0 0 1 0-1.817 1.26 1.26 0 0 1 1.794 0c.524.53.94 1.159 1.222 1.852.283.693.427 1.435.425 2.185ZM78.898 30.387a1.25 1.25 0 0 1-.895-.375 1.284 1.284 0 0 1-.37-.907 3.164 3.164 0 0 0-.909-2.216 3.08 3.08 0 0 0-2.186-.92 1.26 1.26 0 0 1-.897-.377 1.295 1.295 0 0 1 0-1.818 1.26 1.26 0 0 1 .897-.377 5.6 5.6 0 0 1 3.98 1.674 5.754 5.754 0 0 1 1.652 4.034 1.298 1.298 0 0 1-.373.909 1.262 1.262 0 0 1-.9.373Z" fill="#80FF9F"/><path d="M83.237 30.12c-.335 0-.657-.136-.895-.376a1.291 1.291 0 0 1-.37-.907 7.322 7.322 0 0 0-2.104-5.138 7.127 7.127 0 0 0-5.072-2.127 1.26 1.26 0 0 1-.897-.377 1.295 1.295 0 0 1 0-1.818 1.26 1.26 0 0 1 .897-.377 9.67 9.67 0 0 1 6.883 2.89 9.933 9.933 0 0 1 2.851 6.975 1.296 1.296 0 0 1-.39.899 1.264 1.264 0 0 1-.903.355ZM48 61.702a5.601 5.601 0 0 1-3.981-1.674 5.754 5.754 0 0 1-1.652-4.034c0-.34.134-.668.372-.91a1.26 1.26 0 0 1 1.794 0c.238.242.372.57.372.91.002.831.328 1.628.908 2.215a3.08 3.08 0 0 0 2.186.92c.337 0 .66.136.897.378a1.294 1.294 0 0 1 0 1.818 1.26 1.26 0 0 1-.897.377Z" fill="#80FF9F"/><path d="M47.734 66.099a9.669 9.669 0 0 1-6.883-2.89A9.933 9.933 0 0 1 38 56.234c0-.341.134-.668.372-.91a1.26 1.26 0 0 1 1.794 0c.238.242.372.569.372.91a7.357 7.357 0 0 0 .542 2.794 7.28 7.28 0 0 0 1.56 2.369 7.17 7.17 0 0 0 2.337 1.58 7.095 7.095 0 0 0 2.757.55c.337 0 .66.135.897.376a1.295 1.295 0 0 1 0 1.819 1.26 1.26 0 0 1-.897.377Z" fill="#80FF9F"/><defs><linearGradient id="a" x1="28.959" y1="5.534" x2="148.071" y2="320.84" gradientUnits="userSpaceOnUse"><stop stop-color="#0A1193"/><stop offset="1" stop-color="#5E2CE6"/></linearGradient><linearGradient id="b" x1="90" y1="102.521" x2="163.001" y2="379.972" gradientUnits="userSpaceOnUse"><stop stop-color="#62DAE0"/><stop offset="1" stop-color="#76F3B6"/></linearGradient><linearGradient id="c" x1="31.703" y1="-3.419" x2="65.735" y2="86.668" gradientUnits="userSpaceOnUse"><stop stop-color="#0A1193"/><stop offset="1" stop-color="#5E2CE6"/></linearGradient><linearGradient id="d" x1="49.143" y1="24.292" x2="70" y2="103.563" gradientUnits="userSpaceOnUse"><stop stop-color="#62DAE0"/><stop offset="1" stop-color="#76F3B6"/></linearGradient></defs></svg>
